X:4
T:L\"andler (nach S.Stamm) AbEb (5letras) cf. FC
M:3/4
L:1/8
K:Abmaj%%MIDI gchordon
AA |: "Ab"A4ce | A4cf | "Eb7"fe dB G2 | "Ab"fe cAE2 | A4ce | A4cf | "Eb7"fe dB GB |1 "Ab"A2z2AA :|2 "Ab"A2z2z2 || [K:Ebmaj] 
"Bb7"cB AF DB, | "Eb"EG Beg2 | "Bb7"fe dc BA | "Eb"GE GcB2 | "Bb7"cB AF DB, | "Eb"EG Beg2 | "Bb7"fe dB cd | "Eb"e2z2AA || [K:Abmaj]
"Ab"A4ce | A4cf | "Eb7"fe dBG2 | "Ab"fe cAE2 | A4ce | A4cf | "Eb7"fe dB GB | "Ab"A2z2z2 |] 

